public/assets/img/material-icons/task.svg

<svg height="24" viewBox="0 0 24 24" width="24" xmlns="http://www.w3.org/2000/svg"><path d="m14 2h-8c-1.1 0-1.99.9-1.99 2l-.01 16c0 1.1.89 2 1.99 2h12.01c1.1 0 2-.9 2-2v-12zm-3.06 16-3.54-3.54 1.41-1.41 2.12 2.12 4.24-4.24 1.41 1.41zm2.06-9v-5.5l5.5 5.5z"/></svg>

<svg xmlns="http://www.w3.org/2000/svg" width="24" height="24" viewBox="0 0 24 24"><path d="M14 2H6c-1.1 0-1.99.9-1.99 2L4 20c0 1.1.89 2 1.99 2H18c1.1 0 2-.9 2-2V8l-6-6zm-3.06 16L7.4 14.46l1.41-1.41 2.12 2.12 4.24-4.24 1.41 1.41L10.94 18zM13 9V3.5L18.5 9H13z"/></svg>
